X: 1
T:Military Escort
M:C|
L:1/4
P:Flute
%Q:1/2=120
K:Bb
"6"Z | z2(!ff!!>!e2 | .e')zz2 [|: zb/b/bb/b/ | bfbz | zd'/d'/d'd'/d'/ | d'bd'z | zf'/f'/f'f'/f'/ | 
f'c'f'z | zf'/f'/f'f'/f'/ | f'd'bz | zb/b/bb/b/ | bfbz | zd'/d'/d'd'/d'/ | d'bd'z | 
zf'/f'/f'f'/f'/ | f'c'c'z | zc'/c'/c'c' |1 f'zz2 :|]2 f'f/f/ff [|: f2^f2 | g2a2 | .c'z!>!b2- | bbag | a4 | -abc'^c' | 
d'4- | d'f/f/ff | f2^f2 | g2a2 | .c'zb2- | bbag | .fzz2 | Z | z2(a2 |1 b)f/f/ff :|]2 b)zb2 || 
[K:Eb]"TRIO"g4- | g2b2 | e4- | e2g2 | f2e2 | d2e2 | a4- | azb2 | a4 | -a2b2 | d4- | d2a2 | g2f2 | =e2f2 | g4 | -gzb2 | 
g4- | g2b2 | e4- | e2g2 | f2e2 | d2e2 | c'4- | c'zc'2 | f4- | f2a2 | g4- | g2b2 | e2g2 | g2f2 | e4- |1 ezb2 :|]2 eze'z |] 
